!!!OTL: DUNKEL UMHUELLET DIE FLUR
!!!ARE: Europa, Mitteleuropa, Deutschland
!!!SCT: F0331
!!!YEM: Copyright 1995, estate of Helmut Schaffrath.
**kern
*ICvox
*Ivox
*M6/8
*k[f#]
*G:
=1
{8.dd
16ee
8dd
8cc
8b
8a
=2
4.g
4.r}
=3
{8a
8a
8a
8b
8b
8cc#
=4
4.dd
4a
8r}
=5
{8b
8b
8b
8cc
8cc
8cc
=6
4.dd
4ee
8r}
=7
{8.dd
16cc
8b
8a
8b
8a
=8
4g
2r}
==
!!!AGN: Jugend - Lied, Tageszeiten, Abend, religioes
!!!ONB: ESAC (Essen Associative Code) Database: FINK
!!!AMT: compound duple
!!!AIN: vox
!!!EED: Helmut Schaffrath
!!!EEV: 1.0
*-
